X: 1
T: If you're happy and you know it (clap your hands)
C: Traditional
L: 1/8
M: 4/4
Q: 1/4=90 % tempo
K: F
C1C1|"F"  F1F1F1F1 F1F1E1F1|"C7"       G6     C1C1|"C7" G1G1G1G1 G1G1F1G1|"F" A6 A1A1|
    |"Bb" B1B1B1B1 D1D1B1B1|"F"  A1A1A1G1 F1F1A1A1|"C7" A1A1A1F1 E1E1D1E1|"F" F6   z2|
            